build/images/land.svg

<svg width="16" height="16" viewBox="0 0 16 16" fill="none" xmlns="http://www.w3.org/2000/svg">
<path d="M10.1218 9.30923H11.026C11.1685 9.30923 11.2841 9.19368 11.2841 9.0511C11.2841 8.90852 11.1685 8.79297 11.026 8.79297H10.1218C9.9792 8.79297 9.86365 8.90852 9.86365 9.0511C9.86383 9.19368 9.9792 9.30923 10.1218 9.30923Z" fill="#F43838" stroke="#F43838" stroke-width="0.1"/>
<path d="M15.7419 13.3385L15.7493 13.3378L15.7774 13.335L15.8011 13.3311L15.8238 13.3239L15.8501 13.314L15.8571 13.3113L15.8699 13.3031L15.8935 13.2882L15.9124 13.2726L15.9305 13.2551L15.9465 13.2358L15.9607 13.2155L15.9723 13.194L15.9826 13.1707L15.9899 13.1472L15.9954 13.1229L15.9982 13.0955L16 13.0804L15.9993 13.0727L15.9964 13.0452L15.9925 13.0212L15.9856 12.9988L15.9755 12.9721L15.9728 12.9652L14.1488 9.31043H14.4533L14.4629 9.30954L14.4907 9.3067L14.5147 9.30225L14.538 9.29497L14.5639 9.28465L14.5728 9.2811L14.584 9.27381L14.6071 9.25852L14.626 9.24306L14.6436 9.22545L14.6596 9.2059L14.6732 9.18563L14.685 9.16394L14.6948 9.14083L14.7022 9.11701L14.7072 9.09319L14.71 9.06563L14.7115 9.0523L14.7106 9.0427L14.7077 9.01497L14.7035 8.99114L14.6962 8.96786L14.6859 8.94208L14.6823 8.93301L12.8706 5.46101H13.1532L13.1628 5.46012L13.1895 5.45745L13.2155 5.45283L13.2357 5.44661L13.2652 5.43488L13.2724 5.43203L13.2812 5.42617L13.309 5.40785L13.323 5.3963L13.3458 5.37372L13.357 5.36003L13.3753 5.33283L13.3829 5.31879L13.3963 5.28732L13.4009 5.27274L13.408 5.23968L13.4098 5.22208L13.4117 5.20305L13.4103 5.18937L13.4085 5.17159L13.4025 5.13799L13.398 5.12377L13.3842 5.08928L13.3819 5.08359L10.84 0.210521C10.8258 0.135499 10.7797 0.0672322 10.7068 0.0291877C10.6665 0.00820994 10.6231 3.2161e-05 10.5806 0.00109883C10.5381 -0.000145617 10.4948 0.00803216 10.4544 0.0291877C10.3813 0.0672322 10.3353 0.135499 10.3212 0.210521L7.77991 5.08377L7.7776 5.08963L7.76391 5.12377L7.75947 5.13817L7.75342 5.17123L7.75164 5.18954L7.75022 5.20305L7.75218 5.22172L7.75396 5.23968L7.76089 5.27239L7.76551 5.2875L7.77867 5.31861L7.78649 5.33301L7.80462 5.35985L7.81618 5.3739L7.83858 5.39612L7.8528 5.40785L7.88053 5.42599L7.88942 5.43185L7.89653 5.4347L7.92604 5.44643L7.94631 5.45265L7.97227 5.45745L7.99876 5.46012L8.00836 5.46101H8.29102L6.47929 8.93301L6.47573 8.94208L6.46542 8.96786L6.45813 8.99114L6.45369 9.01497L6.45084 9.0427L6.44996 9.0523L6.45138 9.06563L6.45404 9.09319L6.4592 9.11701L6.46667 9.14083L6.47644 9.16394L6.48818 9.18563L6.50187 9.2059L6.51804 9.22545L6.53564 9.24288L6.55449 9.25852L6.5776 9.27381L6.58862 9.2811L6.59751 9.28465L6.62364 9.29514L6.64676 9.30225L6.67093 9.3067L6.69849 9.30954L6.70809 9.31043H7.01244L5.18844 12.9652L5.18578 12.9721L5.17582 12.9984L5.16871 13.0214L5.1648 13.045L5.16196 13.0731L5.16124 13.0806L5.16284 13.0957L5.16569 13.1236L5.1712 13.1474L5.17867 13.1712L5.1888 13.1942L5.20071 13.216L5.21476 13.2359L5.23093 13.2555L5.24889 13.2726L5.26791 13.2882L5.29138 13.3031L5.30436 13.3113L5.31129 13.314L5.3376 13.3239L5.36053 13.3311L5.38418 13.335L5.41227 13.3378L5.41973 13.3385H10.3161V15.4836H2.07236V12.3387H3.3136C3.45618 12.3387 3.57173 12.2231 3.57173 12.0806C3.57173 11.938 3.45618 11.8224 3.3136 11.8224H0.258133C0.115556 11.8226 0 11.9382 0 12.0806C0 12.223 0.115556 12.3387 0.258133 12.3387H1.55609V15.4836H0.258133C0.115556 15.4836 0 15.5991 0 15.7417C0 15.8843 0.115556 15.9999 0.258133 15.9999H16.7419C16.8844 15.9999 17 15.8843 17 15.7417C17 15.5991 16.8844 15.4836 16.7419 15.4836H10.8318V13.3385H15.7419ZM8.24871 9.31043C8.39129 9.31043 8.50667 9.19488 8.50667 9.0523C8.50667 8.90972 8.39111 8.79417 8.24871 8.79417H7.42951H7.13369L8.87307 5.46083H9.43236C9.57493 5.46083 9.69031 5.34528 9.69031 5.2027C9.69031 5.06012 9.57476 4.94457 9.43236 4.94457H8.71662H8.43431L10.5806 0.829188L12.7269 4.94492H12.4444H11.7287C11.5861 4.94492 11.4706 5.06048 11.4706 5.20305C11.4706 5.34563 11.5861 5.46119 11.7287 5.46119H12.288L14.0274 8.79452H13.7316H12.9124C12.7698 8.79452 12.6542 8.91008 12.6542 9.05265C12.6542 9.19523 12.7698 9.31079 12.9124 9.31079H13.5719L15.3244 12.8228H10.5874L10.5806 12.8235L10.5739 12.8228H5.83662L7.58916 9.31079L8.24871 9.31043Z" fill="#F43838" stroke="#F43838" stroke-width="0.2"/>
</svg>

<svg width="16" height="16" fill="none" xmlns="http://www.w3.org/2000/svg"><path d="M10.122 9.31h.904a.258.258 0 000-.517h-.904a.258.258 0 100 .516z" fill="#F43838" stroke="#F43838" stroke-width=".1"/><path d="M15.742 13.338h.007l.028-.003.024-.004.023-.007.026-.01.007-.003.013-.008.024-.015.018-.015.018-.018.017-.02.014-.02.011-.021.01-.023.008-.024.005-.024.003-.027.002-.016v-.007l-.004-.028-.004-.024-.006-.022-.01-.027-.003-.007-1.824-3.655h.314l.028-.003.024-.005.023-.007.026-.01.009-.004.011-.007.023-.015.019-.016.018-.018.016-.02.013-.02.012-.021.01-.023.007-.024.005-.024.003-.027.001-.014v-.01l-.003-.027-.005-.024-.007-.023-.01-.026-.004-.009-1.811-3.472h.292l.027-.004.026-.004.02-.006.03-.012.006-.003.01-.006.027-.018.014-.012.023-.022.011-.014.018-.027.008-.014.013-.032.005-.014.007-.033.002-.018.002-.019-.002-.014-.002-.017-.005-.034-.005-.014-.014-.035-.002-.005L10.84.21a.257.257 0 00-.26-.21.254.254 0 00-.259.21L7.78 5.084l-.002.006-.014.034-.005.014-.006.033-.001.019-.002.013.002.019.002.018.007.032.005.015.013.032.007.014.019.027.011.014.023.022.014.012.028.018.008.006.008.003.029.011.02.007.026.004L8 5.46l.01.001h.282L6.479 8.933l-.003.01-.01.025-.008.023-.004.024-.003.028-.001.01.001.013.003.027.005.024.008.024.01.023.011.022.014.02.016.02.018.017.018.016.024.015.01.007.01.004.026.01.023.007.024.005.027.003h.314l-1.824 3.655-.002.007-.01.026-.007.023-.004.024-.003.028v.023l.004.028.005.023.008.024.01.023.012.022.014.02.016.02.018.017.019.015.023.015.013.008.007.003.027.01.023.007.023.004.028.003h4.904v2.146H2.072v-3.145h1.242a.258.258 0 000-.517H.258a.258.258 0 000 .517h1.298v3.145H.258a.258.258 0 100 .516h16.484a.258.258 0 000-.516h-5.91v-2.146h4.91zM8.249 9.31a.258.258 0 000-.516H7.134l1.74-3.333h.558a.258.258 0 000-.516h-.998L10.581.829l2.146 4.116h-.998a.258.258 0 100 .516h.559l1.74 3.334h-1.117a.258.258 0 100 .516h.66l1.752 3.512H5.837L7.589 9.31h.66z" fill="#F43838" stroke="#F43838" stroke-width=".2"/></svg>
